!!!COM:	la Rue, Pierre de
!!!CDT:	~1452///-1518/11/20
!!!OPR:	Missa De feria
!!!ONM:	4
!!!OTL:	Sanctus
!!!AGN:	Mass; Sanctus
!!!SCT:	Rue1009d
!!!SCA:	Rue1009d
!!!voices:	5
!!!voices-OPR:	5
**kern	**kern	**kern	**kern	**kern
*staff5	*staff4	*staff3	*staff2	*staff1
*Ivox	*Ivox	*Ivox	*Ivox	*Ivox
*I"Bassus	*I"Tenor2	*I"Tenor1	*I"Contra	*I"Discantus
*I'B	*I'T2	*I'T1	*I'C	*I'D
*>[A,B,C,D,C]	*>[A,B,C,D,C]	*>[A,B,C,D,C]	*>[A,B,C,D,C]	*>[A,B,C,D,C]
*>A	*>A	*>A	*>A	*>A
*clefF4	*clefGv2	*clefGv2	*clefGv2	*clefG2
*k[]	*k[]	*k[]	*k[]	*k[]
*M2/1	*M2/1	*M2/1	*M2/1	*M2/1
*met(C2)	*met(C2)	*met(C2)	*met(C2)	*met(C2)
=1-	=1-	=1-	=1-	=1-
!	!LO:TX:X=-40:Z=8:t=Canon at the upper fourth (three breves)	!	!	!
!!section: Sanctus
!!!OMD: Sanctus
[0E	0r	0r	1r	[0e
.	.	.	1B	.
=2.	=2.	=2.	=2.	=2.
0E_	0r	0r	2c\	0e]
.	.	.	1B	.
.	.	.	[2e\	.
=3	=3	=3	=3	=3
0E_	0r	0r	2e\]	[0g
.	.	.	4d\	.
.	.	.	4c\	.
.	.	.	2B\	.
.	.	.	[2c\	.
=4.	=4.	=4.	=4.	=4.
0E]	1r	0r	2c\]	0g]
.	.	.	4B\	.
.	.	.	4A/	.
.	1E	.	1B	.
=5	=5	=5	=5	=5
[0AA	2F/	0r	1A	0a
.	1E	.	.	.
.	.	.	2.c\	.
.	[2A/	.	.	.
.	.	.	4d\	.
=6.	=6.	=6.	=6.	=6.
0AA_	2A/]	0r	2e\	1r
.	4G/	.	2.e\	.
.	4F/	.	.	.
.	2E/	.	.	[1a
.	.	.	4d\	.
.	[2F/	.	4c\	.
.	.	.	4B\	.
=7	=7	=7	=7	=7
0AA]	2F/]	1r	2A/	1a]
.	4E/	.	1d	.
.	4D/	.	.	.
.	1E	1A	.	1a
.	.	.	2c#i\	.
=8.	=8.	=8.	=8.	=8.
0r	[0D	2B\	[0d	1f
.	.	1A	.	.
.	.	.	.	2.f/
.	.	[2d\	.	.
.	.	.	.	4g/
=9	=9	=9	=9	=9
0r	0D]	2d\]	0d]	2a/
.	.	4c\	.	2.a/
.	.	4B\	.	.
.	.	2A/	.	.
.	.	.	.	4g/
.	.	[2B\	.	4f/
.	.	.	.	4e/
=10.	=10.	=10.	=10.	=10.
1r	0r	2B\]	1r	2d/
.	.	4A/	.	1g
.	.	4G/	.	.
1D	.	1A	1d	.
.	.	.	.	2f#i/
=11	=11	=11	=11	=11
[0E	1r	[0G	2B\	[0g
.	.	.	1c	.
.	2.G/	.	.	.
.	.	.	4B\	.
.	4A/	.	4A/	.
=12.	=12.	=12.	=12.	=12.
0E]	2B\	0G]	2.G/	0g]
.	2c\	.	.	.
.	.	.	4F/	.
.	2G/	.	[1E	.
.	[2c\	.	.	.
=13	=13	=13	=13	=13
1C	2c\]	0r	2E/]	1r
.	4B\	.	4D/	.
.	4A/	.	4C/	.
1BB	1G#i	.	1D	1b
=14.	=14.	=14.	=14.	=14.
1AA	[0A	1r	0E	1cc
2.AA/	.	2.c\	.	2cc\
.	.	.	.	[2a/
4BB/	.	4d\	.	.
=15	=15	=15	=15	=15
2C/	0A]	2e\	0r	4a/]
.	.	.	.	4g/
2D\	.	2f\	.	2f/
2AA/	.	2c\	.	2e/
[2D\	.	[2f\	.	2d/
=16.	=16.	=16.	=16.	=16.
2D\]	1r	2f\]	1r	2.a/
2F\	.	4e\	.	.
.	.	4d\	.	4f/
1E	1G	1c#i	1E	1g
=17	=17	=17	=17	=17
0D	1A	[0d	1F	2.f/
.	.	.	.	4g/
.	2.F/	.	2.D/	2a/
.	.	.	.	2b-i\
.	4G/	.	4E/	.
=18.	=18.	=18.	=18.	=18.
1D	2A/	0d]	2F/	2a/
.	1B-i	.	2D/	1dd
[1D	.	.	2.F/	.
.	[2A/	.	.	4cc\
.	.	.	4G/	4b\
=19	=19	=19	=19	=19
2D\]	4A/]	1r	1A	1a
.	4G/	.	.	.
4C/	4F/	.	.	.
4BB/	4E/	.	.	.
1AA	1F	1c	1A	1cc
=20.	=20.	=20.	=20.	=20.
0GG	1r	1d	0D	0b
.	[1G	2.B\	.	.
.	.	4c\	.	.
=21	=21	=21	=21	=21
2r	1G]	2d\	0r	1r
1C	.	1e	.	.
.	[1G	.	.	1g
2BB/	.	[2d\	.	.
=22.	=22.	=22.	=22.	=22.
2C/	1G]	4d\]	1r	2e/
.	.	4c\	.	.
2E\	.	4B\	.	2c/
.	.	4A/	.	.
1D	1F	1B	1D	1f
=23	=23	=23	=23	=23
[0C	0G	1r	1.E	1e
.	.	[1c	.	[1g
.	.	.	2F/	.
=24.	=24.	=24.	=24.	=24.
0C]	1E	1c]	1G	2g/]
.	.	.	.	2f/
.	1E	[1c	[1A	[1e
=25	=25	=25	=25	=25
0D	0F	1c]	2A/]	2e/]
.	.	.	2G/	4d/
.	.	.	.	4c/
.	.	1B	2F/	1d
.	.	.	4E/	.
.	.	.	4D/	.
=26.	=26.	=26.	=26.	=26.
1AA	[0E	0c	0C	2.e/
.	.	.	.	4f/
2r	.	.	.	2g/
2AA/	.	.	.	[2a/
=27	=27	=27	=27	=27
1AA	0E]	1A	1C	4a/]
.	.	.	.	4b\
.	.	.	.	1cc
1AA	.	1A	2C/	.
.	.	.	[2E/	4b\
.	.	.	.	4a/
=28.	=28.	=28.	=28.	=28.
2E\	0r	0B	2E/]	2g/
2D\	.	.	2F/	1a
1E	.	.	1G	.
.	.	.	.	2g#i/
=29	=29	=29	=29	=29
2.AA/	0r	[0A	1E	1a
4BB/	.	.	.	.
2C/	.	.	2E/	2r
[2D\	.	.	[2F/	[2a/
=30.	=30.	=30.	=30.	=30.
2D\]	1r	0A]	4F/]	2a/]
.	.	.	4E/	.
2E\	.	.	1e	1cc
1F	1A	.	.	.
.	.	.	2d\	4b\
.	.	.	.	4a/
=31	=31	=31	=31	=31
0E	2.B\	0r	2.e\	2.g/
.	4A/	.	4d\	4f/
.	4G/	.	4c\	4e/
.	4F/	.	4B\	4d/
.	[2G/	.	[2c\	[2e/
=32.	=32.	=32.	=32.	=32.
1C	2G/]	0r	2c\]	2e/]
.	4F/	.	4B\	4d/
.	4E/	.	4A/	4c/
2BB/	2D/	.	2G/	2d/
2AA/	2E/	.	2A/	2c/
=33	=33	=33	=33	=33
1GG	1G	1r	1B	2r
.	.	.	.	2g/
1D	1F	1d	[1A	2a/
.	.	.	.	2b\
=34.	=34.	=34.	=34.	=34.
0AA	[0El	2.e\	1A]	2.cc\
.	.	4d\	.	4b\
.	.	4c\	2r	4a/
.	.	4B\	.	4g/
.	.	[2c\	[2A/	[2a/
=35	=35	=35	=35	=35
1AA	0E_	2c\]	4A/]	2a/]
.	.	.	4B\	.
.	.	4B\	4c\	4g/
.	.	4A/	4d\	4f/
2r	.	2G/	[1e	2e/
[2AA/	.	2A/	.	[2cc\
=36.	=36.	=36.	=36.	=36.
4AA/]	0E_	1c	1e]	4cc\]
4BB/	.	.	.	4b\
4C/	.	.	.	1a
4D\	.	.	.	.
1E	.	1B	1e	.
.	.	.	.	2g#i/
=37	=37	=37	=37	=37
0AAl	0E]	0Al	0cl	0al
!!LO:LB:i:g=z
=38||	=38||	=38||	=38||	=38||
*>B	*>B	*>B	*>B	*>B
*clefF4	*clefGv2	*clefGv2	*clefGv2	*clefG2
*k[]	*k[]	*k[]	*k[]	*k[]
*M2/1	*M2/1	*M2/1	*M2/1	*M2/1
*met(C2)	*met(C2)	*met(C2)	*met(C2)	*met(C2)
!!section: Pleni sunt celi
!!!OMD: Pleni sunt celi
0E	0r	0r	1r	0r
.	.	.	1c	.
=39.	=39.	=39.	=39.	=39.
0E	0r	0r	1B	0r
.	.	.	1G	.
=40	=40	=40	=40	=40
1r	0r	0r	4A/	0r
.	.	.	4G/	.
.	.	.	4A/	.
.	.	.	4B\	.
1F	.	.	2c\	.
.	.	.	[2d\	.
=41.	=41.	=41.	=41.	=41.
2E\	0r	0r	2d\]	0r
2C/	.	.	2.c\	.
1D	.	.	.	.
.	.	.	4B\	.
.	.	.	2B\	.
=42	=42	=42	=42	=42
1C	0r	0r	0c	0r
2r	.	.	.	.
[2E\	.	.	.	.
=43.	=43.	=43.	=43.	=43.
2E\]	0r	0r	1r	0r
2D\	.	.	.	.
2E\	.	.	2r	.
[2G\	.	.	[2B\	.
=44	=44	=44	=44	=44
2G\]	0r	0r	2B\]	0r
4F\	.	.	2A/	.
4E\	.	.	.	.
[1D	.	.	2B\	.
.	.	.	[2d\	.
=45.	=45.	=45.	=45.	=45.
1D]	0r	0r	2d\]	0r
.	.	.	4c\	.
.	.	.	4B\	.
2r	.	.	1A	.
2C/	.	.	.	.
=46	=46	=46	=46	=46
2E\	0r	0r	1G	0r
2F\	.	.	.	.
[1G	.	.	2r	.
.	.	.	2G/	.
=47.	=47.	=47.	=47.	=47.
2G\]	0r	0r	2B\	0r
4F\	.	.	2c\	.
4E\	.	.	.	.
1D	.	.	1d	.
=48	=48	=48	=48	=48
2r	0r	0r	1.e	0r
2C/	.	.	.	.
2E\	.	.	.	.
2F\	.	.	4d\	.
.	.	.	4c\	.
=49.	=49.	=49.	=49.	=49.
1G	0r	0r	2B\	0r
.	.	.	2d\	.
2.A\	.	.	2c\	.
.	.	.	[2B\	.
4G\	.	.	.	.
=50	=50	=50	=50	=50
2E\	0r	0r	2B\]	0r
2G\	.	.	2.e\	.
1F	.	.	.	.
.	.	.	4d\	.
.	.	.	2d\	.
=51.	=51.	=51.	=51.	=51.
1E	0r	0r	2.e\	0r
.	.	.	4d\	.
2r	.	.	2c\	.
2E\	.	.	[2B\	.
=52	=52	=52	=52	=52
1G	0r	0r	2B\]	0r
.	.	.	4A/	.
.	.	.	4G/	.
2F\	.	.	2A/	.
[2E\	.	.	[2c\	.
=53.	=53.	=53.	=53.	=53.
2E\]	0r	0r	2c\]	0r
4D\	.	.	1B	.
4C/	.	.	.	.
2D\	.	.	.	.
[2F\	.	.	2G/	.
=54	=54	=54	=54	=54
2F\]	0r	0r	4A/	0r
.	.	.	4G/	.
1E	.	.	4F/	.
.	.	.	4E/	.
.	.	.	1F	.
2D\	.	.	.	.
=55.	=55.	=55.	=55.	=55.
0E	0r	0r	2r	0r
.	.	.	2E/	.
.	.	.	2G/	.
.	.	.	2A/	.
=56	=56	=56	=56	=56
1r	0r	0r	2B\	0r
.	.	.	2c\	.
2r	.	.	[1d	.
2BB/	.	.	.	.
=57.	=57.	=57.	=57.	=57.
2.D\	0r	0r	2d\]	0r
.	.	.	4c\	.
4E\	.	.	4B\	.
2F\	.	.	2A/	.
2G\	.	.	2B\	.
=58	=58	=58	=58	=58
1.A	0r	0r	2c\	0r
.	.	.	2d\	.
.	.	.	[1e	.
4G\	.	.	.	.
4F\	.	.	.	.
=59.	=59.	=59.	=59.	=59.
2E\	0r	0r	2e\]	0r
2F\	.	.	4d\	.
.	.	.	4c\	.
[1G	.	.	2B\	.
.	.	.	2c\	.
=60	=60	=60	=60	=60
2G\]	0r	0r	1.d	0r
4F\	.	.	.	.
4E\	.	.	.	.
2D\	.	.	.	.
[2G\	.	.	4c\	.
.	.	.	4B\	.
=61.	=61.	=61.	=61.	=61.
2G\]	0r	0r	1A	0r
2F#i\	.	.	.	.
1G	.	.	2r	.
.	.	.	[2G/	.
=62	=62	=62	=62	=62
2r	0r	0r	4G/]	0r
.	.	.	4A/	.
2.D\	.	.	4B\	.
.	.	.	4c\	.
.	.	.	1d	.
4E\	.	.	.	.
4F\	.	.	.	.
4G\	.	.	.	.
=63.	=63.	=63.	=63.	=63.
2.A\	0r	0r	2c\	0r
.	.	.	2.B\	.
4F\	.	.	.	.
4G\	.	.	.	.
4A\	.	.	4c\	.
[2F\	.	.	4A/	.
.	.	.	4B\	.
=64	=64	=64	=64	=64
4F\]	0r	0r	2.G/	0r
4G\	.	.	.	.
4E\	.	.	.	.
4F\	.	.	4A/	.
2.D\	.	.	4F/	.
.	.	.	4G/	.
.	.	.	[2E/	.
4E\	.	.	.	.
=65.	=65.	=65.	=65.	=65.
2C/	0r	0r	2E/]	0r
2D\	.	.	2.A/	.
1BB	.	.	.	.
.	.	.	4G#i/	.
.	.	.	2G#i/	.
=66	=66	=66	=66	=66
0AAl	0r	0r	0Al	0r
!!LO:LB:i:g=z
=67||	=67||	=67||	=67||	=67||
*>C	*>C	*>C	*>C	*>C
*clefF4	*clefGv2	*clefGv2	*clefGv2	*clefG2
*k[]	*k[]	*k[]	*k[]	*k[]
*M2/1	*M2/1	*M2/1	*M2/1	*M2/1
*met(C2)	*met(C2)	*met(C2)	*met(C2)	*met(C2)
!!section: Osanna
!!!OMD: Osanna
!	!	!LO:TX:X=-40:Z=8:t=Canon at the lower fourth (three breves)	!	!
[0E	0r	0r	1r	2.e/
.	.	.	.	4f/
.	.	.	2.E/	2g/
.	.	.	.	2a/
.	.	.	4F/	.
=68.	=68.	=68.	=68.	=68.
1E]	0r	0r	2G/	2b\
.	.	.	2A/	2cc\
1D	.	.	2B\	[1dd
.	.	.	2c\	.
=69	=69	=69	=69	=69
0F	0r	0r	2d\	2dd\]
.	.	.	2.e\	4cc\
.	.	.	.	4b\
.	.	.	.	1a
.	.	.	4c\	.
.	.	.	2d\	.
=70.	=70.	=70.	=70.	=70.
1E	0r	[0e	2B\	0g
.	.	.	1c	.
1C	.	.	.	.
.	.	.	4B\	.
.	.	.	4A/	.
=71	=71	=71	=71	=71
1E	0r	1e]	1B	1r
1F	.	1d	[1A	1a
=72.	=72.	=72.	=72.	=72.
0D	0r	0f	1A]	2b\
.	.	.	.	2.dd\
.	.	.	1F	.
.	.	.	.	4cc\
.	.	.	.	4b\
.	.	.	.	4a/
=73	=73	=73	=73	=73
[0E	[0B	[0e	1G	2g/
.	.	.	.	1b
.	.	.	2E/	.
.	.	.	2F/	[2a/
=74.	=74.	=74.	=74.	=74.
1E]	1B]	0e]	1G	2a/]
.	.	.	.	2g/
1AA	1A	.	1E	1a
=75	=75	=75	=75	=75
2r	0c	0r	2r	0e
2AA/	.	.	1A	.
2.C/	.	.	.	.
.	.	.	4G/	.
4D\	.	.	4F/	.
=76.	=76.	=76.	=76.	=76.
2E\	[0B	[0e	1.G	0r
2F\	.	.	.	.
[1G	.	.	.	.
.	.	.	2A/	.
=77	=77	=77	=77	=77
1G]	0B]	1e]	2B\	1r
.	.	.	2c\	.
1GG	.	1d	2d\	1b
.	.	.	[2G/	.
=78.	=78.	=78.	=78.	=78.
0AA	0r	0c	2G/]	0cc
.	.	.	4F/	.
.	.	.	4E/	.
.	.	.	2F/	.
.	.	.	2E/	.
=79	=79	=79	=79	=79
0GG	[0B	0d	1G	0b
.	.	.	1D	.
=80.	=80.	=80.	=80.	=80.
2r	1B]	2r	0r	1g
2G\	.	2d\	.	.
1F	1A	2f\	.	2a/
.	.	4e\	.	[2cc\
.	.	4d\	.	.
=81	=81	=81	=81	=81
2E\	0G	2c\	0r	2cc\]
2D\	.	1d	.	4b\
.	.	.	.	4a/
1E	.	.	.	1g
.	.	2c#i\	.	.
=82.	=82.	=82.	=82.	=82.
[0D	0A	0d	1r	0f
.	.	.	[1F	.
=83	=83	=83	=83	=83
1D]	2r	0r	1F]	0r
.	2A/	.	.	.
1AA	2c\	.	[1E	.
.	4B\	.	.	.
.	4A/	.	.	.
=84.	=84.	=84.	=84.	=84.
1C	2G/	1r	2E/]	2r
.	1A	.	2D/	2cc\
1BB	.	1d	1D	2dd\
.	2G#i/	.	.	2b\
=85	=85	=85	=85	=85
0AA	0A	1.c	[0E	2cc\
.	.	.	.	1a
.	.	2A/	.	4g/
.	.	.	.	4f/
=86.	=86.	=86.	=86.	=86.
0r	0r	1c	0E]	2e/
.	.	.	.	1a
.	.	1B	.	.
.	.	.	.	2g/
=87	=87	=87	=87	=87
0r	1r	0A	0r	1a
.	1A	.	.	1e
=88.	=88.	=88.	=88.	=88.
0r	1.G	0r	0r	2e/
.	.	.	.	1g
.	2E/	.	.	4f/
.	.	.	.	4e/
=89	=89	=89	=89	=89
0r	1G	0r	1r	2d/
.	.	.	.	1e
.	1F	.	1A	.
.	.	.	.	2d/
=90.	=90.	=90.	=90.	=90.
1AA	0E	0r	1.c	0e
2.C/	.	.	.	.
.	.	.	4B\	.
4D\	.	.	4A/	.
=91	=91	=91	=91	=91
4E\	0r	0r	2.G/	0r
4F\	.	.	.	.
1G	.	.	.	.
.	.	.	4A/	.
.	.	.	4B\	.
.	.	.	4c\	.
2G\	.	.	[2d\	.
=92.	=92.	=92.	=92.	=92.
4F\	0r	0r	2d\]	0r
4E\	.	.	.	.
4D\	.	.	1c	.
4C/	.	.	.	.
1D	.	.	.	.
.	.	.	2B\	.
=93	=93	=93	=93	=93
0C	0r	1e	0c	1g
.	.	1e	.	1g
=94.	=94.	=94.	=94.	=94.
2.F\	0r	2.d\	2.A/	2f/
.	.	.	.	2a/
4E\	.	4c\	4G/	.
2D\	.	2B\	2F/	2b\
[2C/	.	[2A/	[2E/	[2cc\
=95	=95	=95	=95	=95
2C/]	0r	2A/]	2E/]	4cc\]
.	.	.	.	4b\
2BB/	.	1G	2.D/	2g/
1AA	.	.	.	2a/
.	.	.	4C/	.
.	.	2F#i/	2C/	2cc\
=96.	=96.	=96.	=96.	=96.
1GG	1B	0G	1D	1b
2r	1B	.	2r	1g
2G\	.	.	2G/	.
=97	=97	=97	=97	=97
2.F\	2.A/	0r	2A/	0r
.	.	.	2.c\	.
4E\	4G/	.	.	.
2D\	2F/	.	.	.
.	.	.	4B\	.
[2C/	[2E/	.	[2A/	.
=98.	=98.	=98.	=98.	=98.
2C/]	2E/]	0r	2A/]	2r
2BB/	1D	.	2.G/	2g/
1AA	.	.	.	2a/
.	.	.	4F/	.
.	2C/	.	2F/	[2cc\
=99	=99	=99	=99	=99
0GG	0D	1.d	1G	2cc\]
.	.	.	.	4b\
.	.	.	.	4a/
.	.	.	1G	1b
.	.	4c\	.	.
.	.	4B\	.	.
=100.	=100.	=100.	=100.	=100.
0r	0r	2.c\	2A/	2.e/
.	.	.	4G/	.
.	.	4d\	4F/	4f/
.	.	2e\	2E/	2g/
.	.	[2f\	[2D/	[2a/
=101	=101	=101	=101	=101
1r	0r	2f\]	2D/]	2a/]
.	.	2.e\	2E/	2g/
1D	.	.	1F	2f/
.	.	4d\	.	.
.	.	2d\	.	4e/
.	.	.	.	4d/
=102.	=102.	=102.	=102.	=102.
1AA	1.A	[0el	[0El	1c
2AA/	.	.	.	[1cc
[2C/	4G/	.	.	.
.	4F/	.	.	.
=103	=103	=103	=103	=103
4C/]	2.G/	0e_	0E_	1cc]
4D\	.	.	.	.
4E\	.	.	.	.
4F\	4A/	.	.	.
2G\	2B\	.	.	2b\
[2C/	[2c\	.	.	2g/
=104.	=104.	=104.	=104.	=104.
4C/]	2c\]	0e_	0E_	2a/
4BB/	.	.	.	.
2GG/	2.B\	.	.	2b\
1AA	.	.	.	2cc\
.	4A/	.	.	.
.	2A/	.	.	4b\
.	.	.	.	4a/
=105	=105	=105	=105	=105
0EEl	0Bl	0e]	0E]	0gl
!!LO:LB:i:g=z
!!LO:TX:rj:i:t=fine
=106||	=106||	=106||	=106||	=106||
*>D	*>D	*>D	*>D	*>D
*clefF4	*clefGv2	*clefGv2	*clefGv2	*clefG2
*k[]	*k[]	*k[]	*k[]	*k[]
*M2/1	*M2/1	*M2/1	*M2/1	*M2/1
*met(C2)	*met(C2)	*met(C2)	*met(C2)	*met(C2)
!!section: Benedictus
!!!OMD: Benedictus
1E	0r	0r	0r	0e
2E\	.	.	.	.
[2G\	.	.	.	.
=107.	=107.	=107.	=107.	=107.
2G\]	0r	0r	0r	1e
4F\	.	.	.	.
4E\	.	.	.	.
2F\	.	.	.	1d
2G\	.	.	.	.
=108	=108	=108	=108	=108
2C/	0r	0r	0r	1e
2.G\	.	.	.	.
.	.	.	.	2e/
4F\	.	.	.	.
4G\	.	.	.	[2g/
4A\	.	.	.	.
=109.	=109.	=109.	=109.	=109.
2B\	0r	0r	0r	2g/]
1c	.	.	.	4f/
.	.	.	.	4e/
.	.	.	.	1d
2B\	.	.	.	.
=110	=110	=110	=110	=110
1c	0r	0r	0e	1c
1C	.	.	.	2r
.	.	.	.	[2g/
=111.	=111.	=111.	=111.	=111.
0r	0r	0r	2e\	2g/]
.	.	.	2e\	4f/
.	.	.	.	4e/
.	.	.	1d	2.f/
.	.	.	.	4g/
=112	=112	=112	=112	=112
0r	0r	0r	0e	2c/
.	.	.	.	2.g/
.	.	.	.	4f/
.	.	.	.	4g/
.	.	.	.	4a/
=113.	=113.	=113.	=113.	=113.
0r	0r	0r	2d\	2b\
.	.	.	2c\	1cc
.	.	.	1d	.
.	.	.	.	2b\
=114	=114	=114	=114	=114
0r	0r	0r	2.c\	2a/
.	.	.	.	1cc
.	.	.	4d\	.
.	.	.	1e	.
.	.	.	.	[2b\
=115.	=115.	=115.	=115.	=115.
0r	0r	0r	4d\	2b\]
.	.	.	4c\	.
.	.	.	4B\	1a
.	.	.	4A/	.
.	.	.	1B	.
.	.	.	.	2g/
=116	=116	=116	=116	=116
2.AA/	0r	0r	0A	2f/
.	.	.	.	1e
4BB/	.	.	.	.
2C/	.	.	.	.
2D\	.	.	.	4d/
.	.	.	.	4c/
=117.	=117.	=117.	=117.	=117.
2.E\	0r	0r	0r	2B/
.	.	.	.	1e
4F\	.	.	.	.
4G\	.	.	.	.
4A\	.	.	.	.
[2B\	.	.	.	[2d/
=118	=118	=118	=118	=118
2B\]	0r	0r	0r	4d/]
.	.	.	.	4c/
1A	.	.	.	4B/
.	.	.	.	4A/
.	.	.	.	1B
2G#i\	.	.	.	.
=119.	=119.	=119.	=119.	=119.
1.A	0r	0r	[0e	0A
[2c\	.	.	.	.
=120	=120	=120	=120	=120
2c\]	0r	0r	0e]	0r
4B\	.	.	.	.
4A\	.	.	.	.
2G\	.	.	.	.
2A\	.	.	.	.
=121.	=121.	=121.	=121.	=121.
4E\	0r	0r	1e	0r
4F\	.	.	.	.
4G\	.	.	.	.
4E\	.	.	.	.
2F\	.	.	1d	.
4E\	.	.	.	.
4D\	.	.	.	.
=122	=122	=122	=122	=122
1C	0r	0r	2.e\	0r
.	.	.	4d\	.
2r	.	.	4B\	.
.	.	.	4c\	.
2G\	.	.	4d\	.
.	.	.	4B\	.
=123.	=123.	=123.	=123.	=123.
2A\	0r	0r	2c\	0r
2F\	.	.	4B\	.
.	.	.	4A/	.
2G\	.	.	4G/	.
.	.	.	4A/	.
4F\	.	.	4B\	.
4E\	.	.	4c\	.
=124	=124	=124	=124	=124
4F\	0r	0r	2d\	0r
4E\	.	.	.	.
4D\	.	.	1c	.
4C/	.	.	.	.
1D	.	.	.	.
.	.	.	2B\	.
=125.	=125.	=125.	=125.	=125.
1C	0r	0r	0c	2r
.	.	.	.	2e/
2r	.	.	.	2e/
2E\	.	.	.	[2g/
=126	=126	=126	=126	=126
2E\	0r	0r	2r	2g/]
1G	.	.	2B\	4f/
.	.	.	.	4e/
.	.	.	2B\	4d/
.	.	.	.	4e/
4F\	.	.	[2d\	4f/
4E\	.	.	.	4g/
=127.	=127.	=127.	=127.	=127.
2F\	0r	0r	2d\]	2a/
2G\	.	.	4c\	1g
.	.	.	4B\	.
1D	.	.	1A	.
.	.	.	.	2f#i/
=128	=128	=128	=128	=128
2r	0r	0r	1G	0g
2E\	.	.	.	.
2E\	.	.	2r	.
[2G\	.	.	2B\	.
=129.	=129.	=129.	=129.	=129.
2G\]	0r	0r	2B\	1r
4F\	.	.	1d	.
4E\	.	.	.	.
2D\	.	.	.	2r
2GG/	.	.	4c\	2b\
.	.	.	4B\	.
=130	=130	=130	=130	=130
0GG	0r	0r	2e\	2b\
.	.	.	2d\	1dd
.	.	.	1B	.
.	.	.	.	4cc\
.	.	.	.	4b\
=131.	=131.	=131.	=131.	=131.
0r	0r	0r	2r	4cc\
.	.	.	.	4b\
.	.	.	2e\	4a/
.	.	.	.	4g/
.	.	.	2f\	2a/
.	.	.	[2e\	[2g/
=132	=132	=132	=132	=132
1r	0r	0r	2e\]	2g/]
.	.	.	4d\	1cc
.	.	.	4c\	.
2r	.	.	1d	.
2G\	.	.	.	2b\
=133.	=133.	=133.	=133.	=133.
2.A\	0r	0r	0c	2.cc\
4G\	.	.	.	4b\
4F\	.	.	.	4a/
4E\	.	.	.	4g/
[2F\	.	.	.	[2a/
=134	=134	=134	=134	=134
2F\]	0r	0r	1r	2a/]
4E\	.	.	.	4g/
4D\	.	.	.	4f/
2C/	.	.	2r	1e
2A\	.	.	2c\	.
=135.	=135.	=135.	=135.	=135.
2.B\	0r	0r	2.d\	0r
4A\	.	.	4c\	.
2G\	.	.	4B\	.
.	.	.	4A/	.
2F\	.	.	[2c\	.
=136	=136	=136	=136	=136
2E\	0r	0r	2c\]	1r
1A	.	.	4B\	.
.	.	.	4A/	.
.	.	.	1B	2r
2G#i\	.	.	.	2b\
=137.	=137.	=137.	=137.	=137.
2.A\	0r	0r	0A	2.cc\
4G\	.	.	.	4b\
4F\	.	.	.	4a/
4E\	.	.	.	4g/
[2F\	.	.	.	[2a/
=138	=138	=138	=138	=138
2F\]	0r	0r	1r	2a/]
4E\	.	.	.	4g/
4D\	.	.	.	4f/
1A	.	.	2r	1e
.	.	.	2c\	.
=139.	=139.	=139.	=139.	=139.
2F\	0r	0r	2.d\	0r
2.G\	.	.	.	.
.	.	.	4c\	.
.	.	.	4B\	.
4F\	.	.	4A/	.
4E\	.	.	[2c\	.
4D\	.	.	.	.
=140	=140	=140	=140	=140
2C/	0r	0r	2c\]	1r
2F\	.	.	4B\	.
.	.	.	4A/	.
2D\	.	.	1B	2r
2E\	.	.	.	2g/
=141.	=141.	=141.	=141.	=141.
2.AA/	0r	0r	0A	2.a/
4BB/	.	.	.	4g/
2C/	.	.	.	4f/
.	.	.	.	4e/
[2D\	.	.	.	[2f/
=142	=142	=142	=142	=142
2D\]	0r	0r	1r	2f/]
2F\	.	.	.	4e/
.	.	.	.	4d/
1E	.	.	2r	2c/
.	.	.	2B\	2g/
=143.	=143.	=143.	=143.	=143.
0AA	0r	0r	2.c\	2.a/
.	.	.	4B\	4g/
.	.	.	4A/	4f/
.	.	.	4G/	4e/
.	.	.	[2A/	[2f/
=144	=144	=144	=144	=144
1r	0r	0r	2A/]	2f/]
.	.	.	4G/	4e/
.	.	.	4F/	4d/
2r	.	.	2E/	2c/
2A\	.	.	2e\	2cc\
=145.	=145.	=145.	=145.	=145.
2D\	0r	0r	2.f\	2.dd\
2D\	.	.	.	.
.	.	.	4e\	4cc\
2D\	.	.	4d\	4b\
.	.	.	4c\	4a/
2A\	.	.	[2e\	2cc\
=146	=146	=146	=146	=146
2G\	0r	0r	4e\]	2b\
.	.	.	4d\	.
2A\	.	.	2c\	1a
1E	.	.	1B	.
.	.	.	.	2g#i/
=147.	=147.	=147.	=147.	=147.
0AAl	0r	0r	0Al	0al
!!LO:TX:Y=40:rj:t=[Osanna ut supra]
=||	=||	=||	=||	=||
*-	*-	*-	*-	*-
!!!RDF**kern: l=long note in original notation
!!!RDF**kern: i=editorial accidental
!!!ENC:	Chris Gage 01-29-2013
!!!END:	2013/07/17/
!!!EED:	Jesse Rodin
!!!EEV:	2013/07/19/
!!!ONB:	Translated from MusicXML and edited on 2013/07/19/ by Craig Sapp
!!muse2ps: T^@{OPR}^u^@{ONM}{. }@{OTL}^C^@{COM}^i2I150v85,85,85,85,130Q16
